X: 43131
T: Wink And She'll Follow You
R: slip jig
M: 9/8
K: Dmixolydian
|:E|D2 A A^GA ABc|E^DE GE=D G2 E|D2 A A2 ^G AA/B/c|BAG AGE G2:|
E|c2 c ecA ABc|B^AB dBG GG/=A/B|cGc e2 c A2 c|BAG AGE G2 E|
cBc e2 c AA/B/c|B^AB d2 B GBd|g2 g gdB AdB|cBA AGE G2||

